X:1
T:Fair Annie
M:4/4
L:1/8
K:C
 E2| G2G-E G2 e2| dd dc A2 d2| c2d-c A2G-A| c6 E2| G3- E G2 e2| d2d-c A2 d2|\
 cc dc A2 GA| c6||
